X:1
T:Title
%%score { ( 1 3 4 ) | ( 2 5 ) }
L:1/8
M:4/4
K:Ab
V:1 treble nm="Grand Piano"
V:3 treble 
V:4 treble 
V:2 treble 
V:5 treble 
V:1
 z4 z2[Q:1/4=100] c>d | z2 B4[K:bass][K:treble] z2 | z2 A4 z2 | [CA]GGF [DF]EFd | [Ec]4 z ccd | %5
 [Ac]2 z2 z dde | [Bd]2 z2[K:bass] z[K:treble] eef | z2 =d4 z2 |[M:7/8] [Af]2 e2 d3 |[M:1/4] cc | %10
[M:4/4] c2 c2- cccc | [Ad]2 [Gd]4 [Bd][Ad] | [Ad][Gd][Gd][Fd] [Fd][Ed][Fd][Gd] | [Ac]6 [CE]C | %14
 [CE]2 [CF]2- [CF][CE][CF][CA] | A2 G4 BA | AGGF FEFG |[M:3/4] [CA]6 |] %18
V:2
 z4 z2 E>F | z2 D2- DDDE | z2 C4 DC | z B,ED z[K:treble] CDF | A,,2 C,E, A,[K:treble]AAB | %5
 z2 G2- GBBc | z2 A2- AccA | z2[K:treble] F2- FAAA |[M:7/8][K:bass] z2 G2 B3 | %9
[M:1/4][K:treble] [A,E][A,D] |[M:4/4] [A,E]2 [A,F]2- [A,F][A,E][A,F][A,A] | %11
 [E,B,]2 [E,B,]4 [E,G,][E,F,] | [E,B,][E,B,][E,B,][E,B,] [E,B,][E,B,][E,B,][E,E] | %13
 [A,E]6 [A,,A,][A,,A,] | [A,,A,]2 [A,,A,]2- [A,,A,][A,,A,][A,,A,][A,,A,] | %15
 [E,B,D]2 [E,B,D]4 [E,G,D][E,F,D] | [E,B,D][E,B,D][E,B,D][E,B,D] [E,B,D][E,B,D][E,B,D][E,B,D] | %17
[M:3/4] [A,,A,]6 |] %18
V:3
 x8 | [Ec]2 z2[K:bass] z[K:treble] BBc | [DB]2 z2 z2 BA | x8 | x8 | z2 B4 z2 | %6
 z2 c4[K:bass][K:treble] z2 | [Ge]2 z2 z Bc=d |[M:7/8] x7 |[M:1/4] x2 |[M:4/4] x8 | x8 | x8 | x8 | %14
 x8 | x8 | x8 |[M:3/4] x6 |] %18
V:4
 x8 | z4[K:bass] E,,4[K:treble] | z4 A,4 | x8 | x8 | z4 G,4 | z4[K:bass] A,,4[K:treble] | z4 B,4 | %8
[M:7/8] x7 |[M:1/4] x2 |[M:4/4] x8 | x8 | x8 | x8 | x8 | x8 | x8 |[M:3/4] x6 |] %18
V:5
 x8 | E,4 z4 | A,,4 z4 | E,4 E,4[K:treble] | x5[K:treble] x3 | E,4 z4 | A,4 z4 | %7
 B,,4[K:treble] z4 |[M:7/8][K:bass] E,-E,-E,- E,- E,3 |[M:1/4][K:treble] x2 |[M:4/4] x8 | x8 | x8 | %13
 x8 | x8 | x8 | x8 |[M:3/4] x6 |] %18

